X: 29860
T: O'Gorman's Salute
R: reel
M: 4/4
K: Adorian
BAAA edBd|g3e dBAB|GBBB BABd|aged geed|
BAAA edBd|g2eg a2ga|edBd g2fg|1 edBG A2z2:|2 edBG A2eg||
|:aeee aged|geee gedB|GBBB dGBd|eBde g2eg|
aeee aged|geeg a2ga|edBd g2fg|edBG A2z2:|

